html/dist/img/svg/bicons.svg

<svg width="250" height="311" viewBox="0 0 250 311" fill="none" xmlns="http://www.w3.org/2000/svg"><path d="M0 41c0-14.36 11.64-26 26-26h210c7.732 0 14 6.268 14 14v268c0 7.732-6.268 14-14 14H26c-14.36 0-26-11.641-26-26V41z" fill="#fff"/><path fill-rule="evenodd" clip-rule="evenodd" d="M236 23H26c-9.941 0-18 8.059-18 18v244c0 9.941 8.059 18 18 18h210a6 6 0 006-6V29a6 6 0 00-6-6zM26 15C11.64 15 0 26.64 0 41v244c0 14.359 11.64 26 26 26h210c7.732 0 14-6.268 14-14V29c0-7.732-6.268-14-14-14H26z" fill="#393736"/><path d="M8 40c0-7.18 5.82-13 13-13h208a7 7 0 017 7v226H8V40z" fill="#E04C34"/><path d="M0 273c0-11.046 8.954-20 20-20h230v52a6 6 0 01-6 6H20c-11.046 0-20-8.954-20-20v-18z" fill="#fff"/><path fill-rule="evenodd" clip-rule="evenodd" d="M242 261H20c-6.627 0-12 5.373-12 12v18c0 6.627 5.373 12 12 12h222v-42zm-222-8c-11.046 0-20 8.954-20 20v18c0 11.046 8.954 20 20 20h224a6 6 0 006-6v-52H20z" fill="#393736"/><path d="M236 297a4 4 0 01-4 4H17a9 9 0 01-9-9v-19c0-6.627 5.373-12 12-12h216v36z" fill="#FFD6B8"/><rect x="27" y="16" width="7" height="60" rx="3.5" fill="#393736"/><rect x="27.244" y="85.4" width="6.41" height="35.2" rx="3.205" fill="#393736"/><rect x="27.244" y="215" width="6.41" height="11.2" rx="3.205" fill="#393736"/><rect x="27.244" y="237.4" width="6.41" height="27.2" rx="3.205" fill="#393736"/></svg>

<svg width="250" height="311" viewBox="0 0 250 311" fill="none" xmlns="http://www.w3.org/2000/svg">
<path d="M0 41C0 26.6406 11.6406 15 26 15H236C243.732 15 250 21.268 250 29V297C250 304.732 243.732 311 236 311H26C11.6406 311 0 299.359 0 285V41Z" fill="white"/>
<path fill-rule="evenodd" clip-rule="evenodd" d="M236 23H26C16.0589 23 8 31.0589 8 41V285C8 294.941 16.0589 303 26 303H236C239.314 303 242 300.314 242 297V29C242 25.6863 239.314 23 236 23ZM26 15C11.6406 15 0 26.6406 0 41V285C0 299.359 11.6406 311 26 311H236C243.732 311 250 304.732 250 297V29C250 21.268 243.732 15 236 15H26Z" fill="#393736"/>
<path d="M8 40C8 32.8203 13.8203 27 21 27H229C232.866 27 236 30.134 236 34V260H8V40Z" fill="#E04C34"/>
<path d="M0 273C0 261.954 8.9543 253 20 253H250V305C250 308.314 247.314 311 244 311H20C8.9543 311 0 302.046 0 291V273Z" fill="white"/>
<path fill-rule="evenodd" clip-rule="evenodd" d="M242 261H20C13.3726 261 8 266.373 8 273V291C8 297.627 13.3726 303 20 303H242V261ZM20 253C8.9543 253 0 261.954 0 273V291C0 302.046 8.9543 311 20 311H244C247.314 311 250 308.314 250 305V253H20Z" fill="#393736"/>
<path d="M236 297C236 299.209 234.209 301 232 301L17 301C12.0294 301 8 296.971 8 292L8 273C8 266.373 13.3726 261 20 261L236 261L236 297Z" fill="#FFD6B8"/>
<rect x="27" y="16" width="7" height="60" rx="3.5" fill="#393736"/>
<rect x="27.2441" y="85.4" width="6.41026" height="35.2" rx="3.20513" fill="#393736"/>
<rect x="27.2441" y="215" width="6.41026" height="11.2" rx="3.20513" fill="#393736"/>
<rect x="27.2441" y="237.4" width="6.41026" height="27.2" rx="3.20513" fill="#393736"/>
</svg>
